_inc/images/systems/logos/ps3.svg

<svg version="1.0" viewBox="0 0 264 56" xmlns="http://www.w3.org/2000/svg">
    <path d="M168.995 0h-34.63c-10.681 0-15.915 6.557-15.915 15.071v25.866c0 5.283-2.511 9.076-7.812 9.076H80.349a.387.387 0 0 0-.388.375v5.22c0 .213.175.392.388.392h34.284c10.677 0 15.924-6.528 15.924-15.046V15.071c0-5.287 2.492-9.089 7.823-9.089h30.615c.24 0 .429-.17.429-.383V.387c0-.204-.189-.387-.429-.387ZM67.057 0H.418C.176 0 0 .183 0 .387v5.212c0 .213.176.392.418.392h62.631c5.295 0 7.808 3.793 7.808 9.08 0 5.267-2.513 9.052-7.808 9.052H13.502C5.807 24.123 0 30.544 0 39.062v16.533c0 .226.176.405.419.405h11.29a.406.406 0 0 0 .406-.405V39.062c0-5.254 3.038-8.961 7.447-8.961h47.495c10.66 0 15.886-6.508 15.886-15.026C82.943 6.57 77.717 0 67.057 0Zm191.98 27.301a.476.476 0 0 1 0-.613c3.32-2.732 4.963-6.849 4.963-11.613C264 6.57 258.784 0 248.093 0h-66.622a.395.395 0 0 0-.394.405v5.194a.39.39 0 0 0 .394.392h62.621c5.279 0 7.827 3.793 7.827 9.08 0 5.267-2.531 9.052-7.827 9.052h-.078l-62.543.013a.381.381 0 0 0-.394.399v5.19c0 .209.167.376.394.376h62.621c6.905.08 7.814 6.762 7.814 10.18l.013.643c0 5.296-2.548 9.106-7.827 9.106h-62.621c-.227 0-.394.162-.394.374v5.204a.39.39 0 0 0 .394.392h66.622C258.794 56 264 48.943 264 40.924v-.643c0-5.114-1.643-9.997-4.963-12.98Z" style="fill:#fff;fill-opacity:1"/>
</svg>

<?xml version="1.0" encoding="utf-8"?>
<svg version="1.0" viewBox="0 0 264 56" xmlns="http://www.w3.org/2000/svg">
  <path d="M 168.995 0 L 134.365 0 C 123.684 0 118.45 6.557 118.45 15.071 L 118.45 40.937 C 118.45 46.22 115.939 50.013 110.638 50.013 L 80.349 50.013 C 80.136 50.013 79.961 50.188 79.961 50.388 L 79.961 55.608 C 79.961 55.821 80.136 56 80.349 56 L 114.633 56 C 125.31 56 130.557 49.472 130.557 40.954 L 130.557 15.071 C 130.557 9.784 133.049 5.982 138.38 5.982 L 168.995 5.982 C 169.235 5.982 169.424 5.812 169.424 5.599 L 169.424 0.387 C 169.424 0.183 169.235 0 168.995 0 Z" id="path30" style="fill:#ffffff;fill-opacity:1"/>
  <path d="M 67.057 0 L 0.418 0 C 0.176 0 0 0.183 0 0.387 L 0 5.599 C 0 5.812 0.176 5.991 0.418 5.991 L 63.049 5.991 C 68.344 5.991 70.857 9.784 70.857 15.071 C 70.857 20.338 68.344 24.123 63.049 24.123 L 13.502 24.123 C 5.807 24.123 0 30.544 0 39.062 L 0 55.595 C 0 55.821 0.176 56 0.419 56 L 11.709 56 C 11.93 56 12.115 55.821 12.115 55.595 L 12.115 39.062 C 12.115 33.808 15.153 30.101 19.562 30.101 L 67.057 30.101 C 77.717 30.101 82.943 23.593 82.943 15.075 C 82.943 6.57 77.717 0 67.057 0 Z" id="path32" style="fill:#ffffff;fill-opacity:1"/>
  <path d="M 259.037 27.301 C 258.888 27.135 258.888 26.85 259.037 26.688 C 262.357 23.956 264 19.839 264 15.075 C 264 6.57 258.784 0 248.093 0 L 181.471 0 C 181.244 0 181.077 0.183 181.077 0.405 L 181.077 5.599 C 181.077 5.812 181.244 5.991 181.471 5.991 L 244.092 5.991 C 249.371 5.991 251.919 9.784 251.919 15.071 C 251.919 20.338 249.388 24.123 244.092 24.123 L 244.014 24.123 L 181.471 24.136 C 181.244 24.136 181.077 24.298 181.077 24.535 L 181.077 29.725 C 181.077 29.934 181.244 30.101 181.471 30.101 L 244.092 30.101 C 250.997 30.181 251.906 36.863 251.906 40.281 L 251.919 40.924 C 251.919 46.22 249.371 50.03 244.092 50.03 L 181.471 50.03 C 181.244 50.03 181.077 50.192 181.077 50.404 L 181.077 55.608 C 181.077 55.821 181.244 56 181.471 56 L 248.093 56 C 258.794 56 264 48.943 264 40.924 L 264 40.281 C 264 35.167 262.357 30.284 259.037 27.301 Z" id="path34" style="fill:#ffffff;fill-opacity:1"/>
</svg>
